icons/svg/seamark/notice_prohibition_noberthing.svg

<?xml version="1.0" encoding="UTF-8" standalone="no"?>
<svg
   xmlns:dc="http://purl.org/dc/elements/1.1/"
   xmlns:cc="http://creativecommons.org/ns#"
   xmlns:rdf="http://www.w3.org/1999/02/22-rdf-syntax-ns#"
   xmlns:svg="http://www.w3.org/2000/svg"
   xmlns="http://www.w3.org/2000/svg"
   xmlns:sodipodi="http://sodipodi.sourceforge.net/DTD/sodipodi-0.dtd"
   xmlns:inkscape="http://www.inkscape.org/namespaces/inkscape"
   width="320"
   height="320"
   id="svg2"
   version="1.1"
   inkscape:version="0.48.4 r9939"
   sodipodi:docname="notice_prohibition_noovertaking.svg">
  <defs
     id="defs13">
    <inkscape:path-effect
       effect="gears"
       id="path-effect3774"
       is_visible="true"
       teeth="6"
       phi="-1.2" />
    <inkscape:path-effect
       effect="bend_path"
       id="path-effect3772"
       is_visible="false"
       bendpath="m 95.790098,316.51174 c 144.429032,-206.42506 223.313032,-11.7428 339.548092,0"
       prop_scale="1.19"
       scale_y_rel="false"
       vertical="false"
       bendpath-nodetypes="cc" />
    <inkscape:path-effect
       effect="spiro"
       id="path-effect3775"
       is_visible="true" />
    <inkscape:path-effect
       effect="spiro"
       id="path-effect3775-9"
       is_visible="true" />
    <inkscape:path-effect
       effect="spiro"
       id="path-effect3775-7"
       is_visible="true" />
  </defs>
  <sodipodi:namedview
     pagecolor="#ffffff"
     bordercolor="#666666"
     borderopacity="1"
     objecttolerance="10"
     gridtolerance="10"
     guidetolerance="10"
     inkscape:pageopacity="0"
     inkscape:pageshadow="2"
     inkscape:window-width="1920"
     inkscape:window-height="1004"
     id="namedview11"
     showgrid="false"
     inkscape:zoom="2.3017543"
     inkscape:cx="110.67841"
     inkscape:cy="155.44258"
     inkscape:window-x="1680"
     inkscape:window-y="0"
     inkscape:window-maximized="1"
     inkscape:current-layer="svg2"
     inkscape:snap-bbox="true"
     inkscape:object-nodes="true"
     inkscape:snap-midpoints="true"
     inkscape:snap-grids="false"
     inkscape:snap-bbox-edge-midpoints="true"
     showguides="true"
     inkscape:guide-bbox="true">
    <inkscape:grid
       type="xygrid"
       id="grid2990"
       empspacing="5"
       visible="true"
       enabled="true"
       snapvisiblegridlinesonly="true"
       spacingx="10px"
       spacingy="10px"
       dotted="false" />
    <sodipodi:guide
       orientation="1,0"
       position="55.202458,260.58927"
       id="guide3872" />
    <sodipodi:guide
       orientation="1,0"
       position="265.17816,340"
       id="guide3874" />
    <sodipodi:guide
       orientation="0,1"
       position="317.80107,264.96094"
       id="guide3876" />
    <sodipodi:guide
       orientation="0,1"
       position="325.098,54.759006"
       id="guide3878" />
  </sodipodi:namedview>
  <metadata
     id="metadata2975">image/svg+xmlen<rdf:RDF>
  <cc:Work
     rdf:about="">
    <dc:format>image/svg+xml</dc:format>
    <dc:type
       rdf:resource="http://purl.org/dc/dcmitype/StillImage" />
    <dc:title></dc:title>
  </cc:Work>
</rdf:RDF>
</metadata>
  <path
     style="font-size:143.53205872px;font-style:normal;font-variant:normal;font-weight:normal;font-stretch:normal;text-indent:0;text-align:start;text-decoration:none;line-height:normal;letter-spacing:normal;word-spacing:normal;text-transform:none;direction:ltr;block-progression:tb;writing-mode:lr-tb;text-anchor:start;baseline-shift:baseline;color:#000000;fill:#000000;fill-opacity:1;fill-rule:nonzero;stroke:none;stroke-width:16.38800049;marker:none;visibility:visible;display:inline;overflow:visible;enable-background:accumulate;font-family:Bitstream Vera Sans;-inkscape-font-specification:Sans"
     d="m 113.82758,95.25686 c -4.28593,0.0037 -8.18368,3.802193 -8.1875,7.97893 l 0,117.00403 c 0.004,4.17674 3.90157,7.9752 8.1875,7.97893 l 15.25,0 c 4.28591,-0.004 8.18366,-3.80219 8.18749,-7.97893 l 0,-39.59012 29.40625,0 c 17.49312,0 31.38512,-3.55518 39.96875,-13.03429 7.53497,-8.32114 11.40612,-18.96733 11.40625,-30.54529 -1.3e-4,-6.84391 -1.41279,-13.41574 -4.28125,-19.36871 -2.81856,-5.84867 -6.79386,-10.80701 -11.875,-14.37426 -4.97595,-3.492955 -10.92235,-5.693495 -17.5,-6.821679 -0.0429,-0.0074 -0.082,-0.02318 -0.125,-0.03045 -4.94837,-0.900958 -11.06829,-1.218037 -18.9375,-1.218157 z m 23.43749,29.7535 29.3125,0 c 6.61515,10e-5 11.25319,0.5576 12.03125,0.76134 0.003,8.3e-4 0.0282,-8.1e-4 0.0312,0 2.17627,0.62792 3.55683,1.60793 5.03125,3.71539 1.43271,2.04808 2.24994,4.46644 2.25,8.07029 -6e-5,5.16849 -1.26621,7.74375 -3.59375,9.83662 -1.76205,1.58441 -6.63785,3.4718 -15.4375,3.47175 l -29.625,0 0,-25.85539 z"
     id="text2419"
     inkscape:connector-curvature="0"
     sodipodi:nodetypes="cccccccsscccccccccccccssccc" />
</svg>

<svg width="320" height="320" viewBox="0 0 320 320" fill="none" xmlns="http://www.w3.org/2000/svg">
<path d="M113.828 95.2568C109.542 95.2605 105.644 99.059 105.64 103.236V220.24C105.644 224.417 109.542 228.215 113.828 228.219H129.078C133.364 228.215 137.261 224.417 137.265 220.24V180.65H166.671C184.164 180.65 198.056 177.095 206.64 167.615C214.175 159.294 218.046 148.648 218.046 137.07C218.046 130.226 216.634 123.654 213.765 117.701C210.947 111.853 206.971 106.894 201.89 103.327C196.914 99.8342 190.968 97.6336 184.39 96.5054C184.347 96.498 184.308 96.4823 184.265 96.475C179.317 95.574 173.197 95.257 165.328 95.2568L113.828 95.2568ZM137.265 125.01H166.578C173.193 125.01 177.831 125.568 178.609 125.772C178.612 125.773 178.637 125.771 178.64 125.772C180.816 126.4 182.197 127.38 183.671 129.487C185.104 131.535 185.921 133.954 185.921 137.557C185.921 142.726 184.655 145.301 182.328 147.394C180.566 148.978 175.69 150.866 166.89 150.866H137.265V125.01H137.265Z" fill="black"/>
</svg>
